picto/tickets-framed.svg

<svg class="color-immutable" width="30" height="30" viewBox="0 0 30 30" fill="none" xmlns="http://www.w3.org/2000/svg"><path d="M30 0H0V30H30V0Z" fill="#2D327D"/><path d="M25.5 3C26.325 3 27 3.675 27 4.5V25.5C27 26.325 26.325 27 25.5 27H4.5C3.675 27 3 26.325 3 25.5V4.5C3 3.675 3.675 3 4.5 3H25.5ZM25.5 2.625H4.5C3.46613 2.625 2.625 3.46613 2.625 4.5V25.5C2.625 26.5339 3.46613 27.375 4.5 27.375H25.5C26.5339 27.375 27.375 26.5339 27.375 25.5V4.5C27.375 3.46613 26.5339 2.625 25.5 2.625Z" fill="white"/><path fill-rule="evenodd" clip-rule="evenodd" d="M10.5 6V9.75H15.75V11.25H18.0001V12H15.75V12.7501H18.0001V13.5H15.75V19.5H19.5V6H10.5ZM18 9H17.5506V7.52715H17.3905H17.2305H17.075H17.0212V7.2009C17.131 7.19783 17.2205 7.18657 17.2898 7.16707C17.359 7.14757 17.4223 7.11578 17.4798 7.07168C17.5629 7.00808 17.6189 6.90083 17.6475 6.75H18V9Z" fill="white"/><path fill-rule="evenodd" clip-rule="evenodd" d="M6 10.5V24H15.0001V10.5H6ZM13.4999 18H7.49992V17.25H13.4999V18ZM13.4999 16.5001H7.49992V15.75H13.4999V16.5001ZM13.5 13.5H11.8804C11.8804 13.378 11.9001 13.2616 11.9395 13.1509C11.979 13.0401 12.0347 12.9448 12.1064 12.8648C12.1618 12.8033 12.2266 12.7433 12.301 12.6849C12.3753 12.6265 12.5232 12.5193 12.7447 12.3634C12.8524 12.2886 12.9277 12.2189 12.9708 12.1543C13.0138 12.0897 13.0354 12.0149 13.0354 11.9297C13.0354 11.8313 13.0064 11.7515 12.9484 11.6905C12.8905 11.6295 12.8143 11.5991 12.7201 11.5991C12.4883 11.5991 12.3688 11.7657 12.3617 12.0989H11.9295C11.9295 12.0774 11.9295 12.061 11.9295 12.0497C11.9295 11.7769 12.0059 11.5658 12.1587 11.4161C12.3073 11.2705 12.4996 11.1977 12.7354 11.1977C12.9446 11.1977 13.1194 11.2571 13.2599 11.3761C13.4127 11.5053 13.4891 11.6791 13.4891 11.8975C13.4891 12.0882 13.4281 12.2522 13.3061 12.3896C13.2661 12.4348 13.2287 12.4709 13.1938 12.4981C13.159 12.5252 13.0672 12.5906 12.9185 12.6942C12.777 12.7926 12.6758 12.868 12.6148 12.9203C12.5537 12.9726 12.4971 13.0326 12.4448 13.1003H13.5V13.5Z" fill="white"/></svg>

<svg class="color-immutable" width="30" height="30" viewBox="0 0 30 30" fill="none" xmlns="http://www.w3.org/2000/svg"><g clip-path="url(#a)"><path d="M30 0H0v30h30V0Z" fill="#2D327D"/><path d="M25.5 3c.825 0 1.5.675 1.5 1.5v21c0 .825-.675 1.5-1.5 1.5h-21c-.825 0-1.5-.675-1.5-1.5v-21C3 3.675 3.675 3 4.5 3h21Zm0-.375h-21A1.877 1.877 0 0 0 2.625 4.5v21c0 1.034.841 1.875 1.875 1.875h21a1.877 1.877 0 0 0 1.875-1.875v-21A1.877 1.877 0 0 0 25.5 2.625Z" fill="#fff"/><path fill-rule="evenodd" clip-rule="evenodd" d="M10.5 6v3.75h5.25v1.5H18V12h-2.25v.75H18v.75h-2.25v6h3.75V6h-9ZM18 9h-.45V7.527h-.529v-.326c.11-.003.2-.014.269-.034a.558.558 0 0 0 .19-.095c.083-.064.139-.171.168-.322H18V9Z" fill="#fff"/><path fill-rule="evenodd" clip-rule="evenodd" d="M6 10.5V24h9V10.5H6Zm7.5 7.5h-6v-.75h6V18Zm0-1.5h-6v-.75h6v.75Zm0-3h-1.62c0-.122.02-.238.06-.35a.852.852 0 0 1 .166-.285c.056-.062.12-.122.195-.18.074-.059.222-.166.444-.322a.861.861 0 0 0 .226-.209.396.396 0 0 0 .064-.224.333.333 0 0 0-.087-.24.3.3 0 0 0-.228-.09c-.232 0-.351.166-.358.499h-.432v-.05c0-.272.076-.483.229-.633a.79.79 0 0 1 .576-.218c.21 0 .384.06.525.178.153.13.23.303.23.522 0 .19-.062.354-.184.492a.861.861 0 0 1-.112.108 9.159 9.159 0 0 1-.276.196 4.166 4.166 0 0 0-.303.226 1.207 1.207 0 0 0-.17.18H13.5v.4Z" fill="#fff"/></g><defs><clipPath id="a"><path fill="#fff" d="M0 0h30v30H0z"/></clipPath></defs></svg>
